X: 14979
T: General Macdonald
R: reel
M: 4/4
K: Dmajor
g|:fA d2 dA d2|fA d2 faga|fA d2 dA d2|eA c2 egfg:|
fdad fgag|fdad faga|fdad fdad|ecgc egfg|
fdad fgag|fdad faga|afge fdaf|ecgc efga||

